!!!!SEGMENT: pl-cz--iii-277--003_gollabek-jakub--symfonia-c-prestissimo.krn
!!!cenid: 17xx:893
!!!COM: Gołąbek, Jakub
!!!COM-rismID: pe30008748
!!!CDT: 1739-1789/03/30
!!!CNT: Polish
!!!OPR: Symfonia C
!!!OTL: Prestissimo
!!!OMV: 003
!!!PDT:
!!!AGN: Secular
!!!SMS-siglum: PL-CZ
!!!SMS-shelfmark: III-277
!!!SMS-shelfwork: 001-003 M
!!!SMS-variant:
!!!SMS-altvar:
!!!NIFC-rismSourceID: 300000361
!!!NIFC-rismChildID: 300000361
!!!NIFC-islandoraID: pl-cz:37120
!!!URL-pdf-islandora: https://repozytorium.nifc.pl/islandora/object/pl-cz%3A37120/datastream/PDF/view
!!!URL-scan: https://polish.musicsources.pl/pl/lokalizacje/galeria/rekopisy/6888/1 @EN{Scan on Polish Music Sources Website} @PL{Skany w portalu Dziedzictwo Muzyki Polskiej w otwartym dostępie}
!!!ONB-nifc: UWAGA: części Symfonii: Allegro molto, Andante, Prestissimo
!!!AIN: 1 cbass 2 cor 2 oboe 1 viola 2 violn
!!!key: C
**kern	**dynam	**kern	**dynam	**kern	**dynam	**kern	**dynam	**kern	**dynam	**kern	**dynam	**kern	**kern
*part8	*part8	*part7	*part7	*part6	*part6	*part5	*part5	*part4	*part4	*part3	*part3	*part2	*part1
*group3	*	*group3	*	*group3	*	*group3	*	*group2	*	*group2	*	*group1	*group1
*staff8	*	*staff7	*	*staff6	*	*staff5	*	*staff4	*	*staff3	*	*staff2	*staff1
*I"Baſso	*	*I"Viola.	*	*I"Violino Secundo.	*	*I"Violino Primo.	*	*I"Cornu Secundo.	*	*I"Cornu Primo in C.	*	*I"Oboe Secundo.	*I"Oboe Primo.
*I'b	*	*I'vla	*	*I'vl 2	*	*I'vl 1	*	*I'cor 2 in C	*	*I'cor 1 in C	*	*I'ob 2	*I'ob 1
*Icbass	*	*Iviola	*	*Ivioln	*	*Ivioln	*	*Icor	*	*Icor	*	*Ioboe	*Ioboe
*ICstr	*	*ICstr	*	*ICstr	*	*ICstr	*	*ICbras	*	*ICbras	*	*ICww	*ICww
*clefF4	*	*clefC3	*	*clefG2	*	*clefG2	*	*clefG2	*	*clefG2	*	*clefG2	*clefG2
*Trd0c0	*	*	*	*	*	*	*	*Trd0c0	*	*Trd0c0	*	*	*
*k[]	*	*k[]	*	*k[]	*	*k[]	*	*k[]	*	*k[]	*	*k[]	*k[]
*C:	*	*C:	*	*C:	*	*C:	*	*C:	*	*C:	*	*C:	*C:
*M6/8	*	*M6/8	*	*M6/8	*	*M6/8	*	*M6/8	*	*M6/8	*	*M6/8	*M6/8
!LO:TX:a:B:t=Prestiſsime	!	!LO:TX:a:B:t=Prestiſsime	!LO:DY:a:Bi:t=pp.	!LO:TX:a:B:t=Presto	!LO:DY:b:rj:Bi:t=piani&colon;	!LO:TX:a:B:t=Prestiſsime	!LO:DY:a:Bi:t=pianiſsime	!LO:TX:a:B:t=Prestiſsimo	!	!LO:TX:a:B:t=Prestiſsimo	!	!LO:TX:a:B:t=Prestiſsime	!LO:TX:a:B:t=Presto Flotra&colon;
!	!	!	!	!	!	!	!	!	!	!	!	!LO:TX:a:i:t=Flotrauerso	!
8r	.	8r	pp	8G/	p	8G/	pp	8r	.	8r	.	8r	8r
=1	=1	=1	=1	=1	=1	=1	=1	=1	=1	=1	=1	=1	=1
!	!	!	!	!	!	!	!	!LO:N:vis=00	!	!LO:N:vis=00	!	!LO:N:vis=00	!LO:N:vis=00
8C\L	.	8G/L	.	8c/L	.	8c/L	.	0.r	.	0.r	.	0.r	0.r
8E\	.	8G/	.	8c/	.	8c/	.	.	.	.	.	.	.
8G\J	.	8G/J	.	8c/J	.	8c/J	.	.	.	.	.	.	.
8C/L	.	8G/L	.	8c/L	.	8c/L	.	.	.	.	.	.	.
8BB/	.	8G/	.	8d/	.	8d/	.	.	.	.	.	.	.
8C/J	.	8G/J	.	8e/J	.	8e/J	.	.	.	.	.	.	.
=2	=2	=2	=2	=2	=2	=2	=2	=2	=2	=2	=2	=2	=2
8GG/L	.	8G/L	.	4d/	.	4d/	.	.	.	.	.	.	.
8BB/	.	8B/	.	.	.	.	.	.	.	.	.	.	.
8D/J	.	8d/J	.	8G/	.	8G/	.	.	.	.	.	.	.
8G\L	.	8g\L	.	4G/	.	4G/	.	.	.	.	.	.	.
8D\	.	8d\	.	.	.	.	.	.	.	.	.	.	.
8BB\J	.	8B\J	.	8G/	.	8G/	.	.	.	.	.	.	.
=3	=3	=3	=3	=3	=3	=3	=3	=3	=3	=3	=3	=3	=3
8GG/L	.	8G/L	.	8B/L	.	8d/L	.	.	.	.	.	.	.
8BB/	.	8G/	.	8B/	.	8d/	.	.	.	.	.	.	.
8D/J	.	8G/J	.	8B/J	.	8d/J	.	.	.	.	.	.	.
8GG/L	.	8G/L	.	8B/L	.	8d/L	.	.	.	.	.	.	.
8GG/	.	8G/	.	8c/	.	8e/	.	.	.	.	.	.	.
8GG/J	.	8G/J	.	8d/J	.	8f/J	.	.	.	.	.	.	.
=4	=4	=4	=4	=4	=4	=4	=4	=4	=4	=4	=4	=4	=4
8C/L	.	8G/L	.	8c/L	.	8e/L	.	.	.	.	.	.	.
8C/	.	8G/	.	8e/	.	8g/	.	.	.	.	.	.	.
8C/J	.	8G/J	.	8c/J	.	8e/J	.	.	.	.	.	.	.
4C/	.	4G/	.	4G/	.	4c/	.	.	.	.	.	.	.
8r	.	8r	.	8e/	.	8g/	.	.	.	.	.	.	.
=5	=5	=5	=5	=5	=5	=5	=5	=5	=5	=5	=5	=5	=5
!	!	!	!	!	!	!	!	!LO:N:vis=00	!	!LO:N:vis=00	!	!LO:N:vis=00	!LO:N:vis=00
4C/	.	4c/	.	8f/L	.	8a/L	.	0.r	.	0.r	.	0.r	0.r
.	.	.	.	8d/	.	8f/	.	.	.	.	.	.	.
8r	.	8r	.	8f/J	.	8a/J	.	.	.	.	.	.	.
4C/	.	4c/	.	8e/L	.	8g/L	.	.	.	.	.	.	.
.	.	.	.	8c/	.	8e/	.	.	.	.	.	.	.
8r	.	8r	.	8e/J	.	8g/J	.	.	.	.	.	.	.
!	!	!LO:LB:g=original	!	!	!	!LO:LB:g=original	!	!	!	!	!	!	!
=6	=6	=6	=6	=6	=6	=6	=6	=6	=6	=6	=6	=6	=6
4BB/	.	4G/	.	8d/L	.	8f/L	.	.	.	.	.	.	.
.	.	.	.	8B/	.	8d/	.	.	.	.	.	.	.
8r	.	8r	.	8d/J	.	8f/J	.	.	.	.	.	.	.
4C/	.	4G/	.	8e/L	.	8e/L	.	.	.	.	.	.	.
.	.	.	.	8d/	.	8d/	.	.	.	.	.	.	.
8r	.	8r	.	8c/J	.	8c/J	.	.	.	.	.	.	.
!LO:LB:g=original	!	!	!	!LO:LB:g=original	!	!	!	!	!	!	!	!	!
=7	=7	=7	=7	=7	=7	=7	=7	=7	=7	=7	=7	=7	=7
4GG/	.	4G/	.	8d/L	.	8d/L	.	.	.	.	.	.	.
.	.	.	.	8e/	.	8e/	.	.	.	.	.	.	.
8r	.	8r	.	8c/J	.	8c/J	.	.	.	.	.	.	.
4D\	.	4d\	.	8B/L	.	8B/L	.	.	.	.	.	.	.
.	.	.	.	8c/	.	8c/	.	.	.	.	.	.	.
8r	.	8r	.	8A/J	.	8A/J	.	.	.	.	.	.	.
=8	=8	=8	=8	=8	=8	=8	=8	=8	=8	=8	=8	=8	=8
8GG/L	.	8G/L	.	8G/L	.	8G/L	.	.	.	.	.	.	.
8BB/	.	8B/	.	8G/	.	8G/	.	.	.	.	.	.	.
8D/J	.	8d/J	.	8G/J	.	8G/J	.	.	.	.	.	.	.
4G\	.	4g\	.	4G/	.	4G/	.	.	.	.	.	.	.
!	!	!	!	!	!	!	!LO:DY:a:Bi:t=for	!	!	!	!	!	!
8r	.	8r	.	8g/	.	8g/	f	.	.	.	.	.	.
=9	=9	=9	=9	=9	=9	=9	=9	=9	=9	=9	=9	=9	=9
!	!LO:DY:a:Bi:t=for	!	!LO:DY:a:Bi:t=f&colon;	!	!LO:DY:a:Bi:t=for	!	!	!	!LO:DY:b:Bi:t=f&colon;	!	!LO:DY:b:Bi:t=f&colon;	!	!
8C\L	f	8G/L	f	8e/L	f	8cc\L	.	8e/L	f	8cc\L	f	4ee\	4ccc\
8E\	.	8G/	.	8e/	.	8cc\	.	8e/	.	8cc\	.	.	.
8G\J	.	8G/J	.	8e/J	.	8cc\J	.	8e/J	.	8cc\J	.	8r	8r
8c\L	.	8G/L	.	8e/L	.	8cc\L	.	8e/L	.	8cc\L	.	4ee\	4ccc\
8B\	.	8G/	.	8f/	.	8dd\	.	8g/	.	8dd\	.	.	.
8c\J	.	8G/J	.	8g/J	.	8ee\J	.	8cc/J	.	8ee\J	.	8r	8r
=10	=10	=10	=10	=10	=10	=10	=10	=10	=10	=10	=10	=10	=10
!	!LO:DY:b:Bi:t=p&colon;	!	!	!	!	!	!	!	!	!	!	!	!
8G\L	p	8g\L	.	4d/	.	4dd\	.	8g/L	.	8dd\L	.	4dd\	4bb\
8D\	.	8d\	.	.	.	.	.	8g/	.	8dd\	.	.	.
8BB\J	.	8B\J	.	8B/	.	8g/	.	8g/J	.	8dd\J	.	8r	8r
8GG/L	.	8G/L	.	4B/	.	4g/	.	4g/	.	4dd\	.	4dd\	4bb\
8BB/	.	8B/	.	.	.	.	.	.	.	.	.	.	.
8D/J	.	8d/J	.	8B/	.	8g/	.	8r	.	8r	.	8r	8r
=11	=11	=11	=11	=11	=11	=11	=11	=11	=11	=11	=11	=11	=11
!LO:TX:b:t=+	!	!	!	!	!	!	!	!	!	!	!	!	!
8G\L	.	8g\L	.	8b\L	.	8dd\L	.	8g/L	.	8dd\L	.	4ff\	4ddd\
8D\	.	8d\	.	8b\	.	8dd\	.	8g/	.	8dd\	.	.	.
8BB\J	.	8B\J	.	8b\J	.	8dd\J	.	8g/J	.	8dd\J	.	8r	8r
!LO:TX:t=P:problem=mixed beam	!	!LO:TX:t=P:problem=mixed beam	!	!	!	!	!	!	!	!	!	!	!
8GG/L	.	8G/L	.	8b\L	.	8dd\L	.	8g/L	.	8dd\L	.	4ff\	4ddd\
8G\	.	8g\	.	8cc\	.	8ee\	.	8cc/	.	8ee\	.	.	.
8GG/J	.	8G/J	.	8dd\J	.	8ff\J	.	8dd/J	.	8ff\J	.	8r	8r
=12	=12	=12	=12	=12	=12	=12	=12	=12	=12	=12	=12	=12	=12
8C\L	.	8G/L	.	8cc\L	.	8ee\L	.	8cc\L	.	8ee\L	.	4ee\	4ccc\
8E\	.	8G/	.	8ee\	.	8gg\	.	8cc\	.	8ee\	.	.	.
8G\J	.	8G/J	.	8cc\J	.	8ee\J	.	8cc\J	.	8ee\J	.	8r	8r
!	!	!	!	!	!	!	!	!	!	!LO:LB:g=original	!	!	!
4c\	.	4G/	.	4e/	.	4cc\	.	4cc\	.	4ee\	.	4ee\	4ccc\
8r	.	8r	.	8ee\	.	8gg\	.	8ee\	.	8gg\	.	8r	8r
!	!	!LO:LB:g=original	!	!	!	!LO:LB:g=original	!	!LO:LB:g=original	!	!	!	!	!
=13	=13	=13	=13	=13	=13	=13	=13	=13	=13	=13	=13	=13	=13
4C/	.	4c/	.	8ff\L	.	8aa\L	.	4ff\	.	4aa\	.	4ff\	4aa\
.	.	.	.	8dd\	.	8ff\	.	.	.	.	.	.	.
8r	.	8r	.	8ff\J	.	8aa\J	.	8r	.	8r	.	8r	8r
4c\	.	4cc\	.	8ee\L	.	8gg\L	.	4ee\	.	4gg\	.	4ee\	4gg\
.	.	.	.	8cc\	.	8ee\	.	.	.	.	.	.	.
8r	.	8r	.	8ee\J	.	8gg\J	.	8r	.	8r	.	8r	8r
!LO:LB:g=original	!	!	!	!LO:LB:g=original	!	!	!	!	!	!	!	!LO:LB:g=original	!
=14	=14	=14	=14	=14	=14	=14	=14	=14	=14	=14	=14	=14	=14
4G\	.	4g\	.	8dd\L	.	8ff\L	.	4dd\	.	4ff\	.	4dd\	4ff\
.	.	.	.	8b\	.	8dd\	.	.	.	.	.	.	.
8r	.	8r	.	8dd\J	.	8ff\J	.	8r	.	8r	.	8r	8r
8C/L	.	8c\L	.	8g/L	.	8ee\L	.	4cc\	.	4ee\	.	4cc\	4ee\
8BB/	.	8B\	.	8f/	.	8dd\	.	.	.	.	.	.	.
8C/J	.	8c\J	.	8e/J	.	8cc\J	.	8r	.	8r	.	8r	8r
!	!	!	!	!	!	!	!	!	!	!	!	!	!LO:LB:g=original
=15	=15	=15	=15	=15	=15	=15	=15	=15	=15	=15	=15	=15	=15
8F\L	.	8f\L	.	8f/L	.	8a\L	.	4dd\	.	4ff\	.	8dd\L	8ff\L
8F\	.	8f\	.	8a/	.	8ff\	.	.	.	.	.	8ff\	8aa\
8F\J	.	8f\J	.	8g/J	.	8ee\J	.	8r	.	8r	.	8ee\J	8gg\J
!LO:TX:t=P:problem=mixed beam	!	!LO:TX:t=P:problem=mixed beam	!	!	!	!	!	!	!	!	!	!	!
8G\L	.	8g\L	.	8f/L	.	8dd\L	.	8dd\L	.	8ff\L	.	8dd\L	8ff\L
8GG/	.	8G/	.	8e/	.	8cc\	.	8cc\	.	8ee\	.	8cc\	8ee\
8GG/J	.	8G/J	.	8d/J	.	8b\J	.	8g\J	.	8dd\J	.	8b\J	8dd\J
=16	=16	=16	=16	=16	=16	=16	=16	=16	=16	=16	=16	=16	=16
8C/L	.	8G/L	.	8e/L	.	8cc\L	.	8e/L	.	8cc\L	.	8cc\L	8ee\L
8E/	.	8G/	.	8e/	.	8cc\	.	8e/	.	8cc\	.	8cc\	8ee\
8G/J	.	8G/J	.	8e/J	.	8cc\J	.	8e/J	.	8cc\J	.	8cc\J	8ee\J
4C/	.	4G/	.	4e/	.	4cc\	.	4e/	.	4cc\	.	4cc\	4ee\
!	!	!	!	!	!	!	!LO:DY:a:Bi:t=p&colon;	!	!	!	!	!	!
8r	.	8r	.	8r	.	8ee\	p	8r	.	8r	.	8r	8r
=17	=17	=17	=17	=17	=17	=17	=17	=17	=17	=17	=17	=17	=17
!	!LO:DY:a	!	!LO:DY:a:Bi:t=p&colon;	!	!LO:DY:a:Bi:t=p.	!	!	!LO:N:vis=00	!	!LO:N:vis=00	!	!LO:N:vis=00	!LO:N:vis=00
4G\	p	4g\	p	8dd\L	p	8dd\L	.	0.r	.	0.r	.	0.r	0.r
.	.	.	.	8b\	.	8b\	.	.	.	.	.	.	.
8r	.	8r	.	8g\J	.	8g\J	.	.	.	.	.	.	.
4D\	.	4d\	.	8d/L	.	8f#X/L	.	.	.	.	.	.	.
.	.	.	.	8f#X/	.	8a/	.	.	.	.	.	.	.
8r	.	8r	.	8a/J	.	8cc/J	.	.	.	.	.	.	.
=18	=18	=18	=18	=18	=18	=18	=18	=18	=18	=18	=18	=18	=18
4.D\	.	4.d\	.	4.a/	.	4.cc\	.	.	.	.	.	.	.
!	!	!LO:SIC:v:s=4g\	!	!	!	!	!	!	!	!	!	!	!
4G\	.	4e\	.	4g/	.	8b\	.	.	.	.	.	.	.
.	.	.	.	.	.	4ee\	.	.	.	.	.	.	.
8r	.	8r	.	8cc/	.	.	.	.	.	.	.	.	.
=19	=19	=19	=19	=19	=19	=19	=19	=19	=19	=19	=19	=19	=19
4.G\	.	4.g\	.	8b/L	.	8dd\L	.	.	.	.	.	.	.
.	.	.	.	8g/	.	8b\	.	.	.	.	.	.	.
.	.	.	.	8d/J	.	8g\J	.	.	.	.	.	.	.
4.D\	.	4.d\	.	8d/L	.	8f#X/L	.	.	.	.	.	.	.
.	.	.	.	8f#X/	.	8a/	.	.	.	.	.	.	.
.	.	.	.	8a/J	.	8cc/J	.	.	.	.	.	.	.
!	!	!	!	!LO:LB:g=original	!	!LO:LB:g=original	!	!	!	!	!	!	!
=20	=20	=20	=20	=20	=20	=20	=20	=20	=20	=20	=20	=20	=20
4.D\	.	4.d\	.	4.a/	.	4.cc\	.	.	.	.	.	.	.
4G\	.	4g\	.	4g/	.	4b\	.	.	.	.	.	.	.
8GG/	.	8G/	.	8d/	.	8f/	.	.	.	.	.	.	.
=21	=21	=21	=21	=21	=21	=21	=21	=21	=21	=21	=21	=21	=21
!	!	!	!	!	!	!	!	!LO:N:vis=00	!	!LO:N:vis=00	!	!LO:N:vis=00	!LO:N:vis=00
4C/	.	4c/	.	8e/	.	8e/	.	0.r	.	0.r	.	0.r	0.r
.	.	.	.	(8cc\L	.	(8cc\L	.	.	.	.	.	.	.
8r	.	8r	.	8a\J)	.	8a\J)	.	.	.	.	.	.	.
4D/	.	4d\	.	8f#X\L	.	8f#X/	.	.	.	.	.	.	.
.	.	.	.	8dd\	.	(8dd\L	.	.	.	.	.	.	.
8r	.	8r	.	8b\J	.	8b\J)	.	.	.	.	.	.	.
!LO:LB:g=original	!	!LO:LB:g=original	!	!	!	!	!	!	!	!	!	!	!
=22	=22	=22	=22	=22	=22	=22	=22	=22	=22	=22	=22	=22	=22
4E\	.	4e\	.	8g|\L	.	8g|\L	.	.	.	.	.	.	.
.	.	.	.	(8ee\	.	8ee|\	.	.	.	.	.	.	.
8r	.	8r	.	8cc\J)	.	8cc|\J	.	.	.	.	.	.	.
!	!	!LO:SIC:v:s=4f#\	!	!	!	!	!	!	!	!	!	!	!
4F#X\	.	4g#X\	.	8a\L	.	8a|\L	.	.	.	.	.	.	.
.	.	.	.	8ff#X\	.	(8ff#X\	.	.	.	.	.	.	.
8r	.	8r	.	8dd\J	.	8dd\J)	.	.	.	.	.	.	.
=23	=23	=23	=23	=23	=23	=23	=23	=23	=23	=23	=23	=23	=23
4G\	.	4d\	.	8b\L	.	8b|\L	.	.	.	.	.	.	.
.	.	.	.	8b\	.	(8gg\	.	.	.	.	.	.	.
8r	.	8r	.	8b\J	.	8dd\J)	.	.	.	.	.	.	.
4F#X\	.	4d\	.	8a\L	.	8cc|\L	.	.	.	.	.	.	.
.	.	.	.	8cc\	.	(8aa\	.	.	.	.	.	.	.
8r	.	8r	.	8cc\J	.	8ff#X\J)	.	.	.	.	.	.	.
=24	=24	=24	=24	=24	=24	=24	=24	=24	=24	=24	=24	=24	=24
4G\	.	4d\	.	8b\L	.	8dd|\L	.	.	.	.	.	.	.
.	.	.	.	8gg\	.	(8bb\	.	.	.	.	.	.	.
8r	.	8r	.	8dd\J	.	8gg\J)	.	.	.	.	.	.	.
!LO:SIC:v:s=4F#\	!	!	!	!	!	!	!	!	!	!	!	!	!
4F\	.	4d\	.	8dd\L	.	8dd|\L	.	.	.	.	.	.	.
.	.	.	.	8ff#X\	.	(8ccc\	.	.	.	.	.	.	.
8r	.	8r	.	8dd\J	.	8aa\J)	.	.	.	.	.	.	.
=25	=25	=25	=25	=25	=25	=25	=25	=25	=25	=25	=25	=25	=25
!	!	!	!	!	!	!	!	!LO:N:vis=00	!	!LO:N:vis=00	!	!LO:N:vis=00	!LO:N:vis=00
4G\	.	4d\	.	8b\L	.	8dd|\L	.	0.r	.	0.r	.	0.r	0.r
.	.	.	.	8gg\	.	(8bb\	.	.	.	.	.	.	.
8r	.	8r	.	8dd\J	.	8gg\J)	.	.	.	.	.	.	.
4D\	.	4d\	.	8dd\L	.	8dd|\L	.	.	.	.	.	.	.
.	.	.	.	8ff#X\	.	(8ccc\	.	.	.	.	.	.	.
8r	.	8r	.	8dd\J	.	8aa\J)	.	.	.	.	.	.	.
!	!	!	!	!LO:LB:g=original	!	!	!	!	!	!	!	!	!
=26	=26	=26	=26	=26	=26	=26	=26	=26	=26	=26	=26	=26	=26
!	!LO:DY:a:Bi:t=f&colon;	!	!	!	!LO:DY:a:Bi:t=for	!	!LO:DY:a:Bi:t=for	!	!	!	!	!	!
8G\L	f	8d\L	.	8b/L	f	8gg\L	f	.	.	.	.	.	.
8D\	.	8d\	.	8b/	.	8gg\	.	.	.	.	.	.	.
8BB\J	.	8d\J	.	8b/J	.	8gg\J	.	.	.	.	.	.	.
!	!	!	!	!	!	!LO:LB:g=original	!	!	!	!	!	!	!
4GG/	.	4d\	.	4b/	.	4gg\	.	.	.	.	.	.	.
!	!	!	!	!	!LO:DY:a	!	!LO:DY:a:Bi:t=p.	!	!	!	!	!	!
8r	.	8r	.	8e/	p	8cc\	p	.	.	.	.	.	.
=27	=27	=27	=27	=27	=27	=27	=27	=27	=27	=27	=27	=27	=27
!	!LO:DY:a:Bi:t=p&colon;	!	!	!	!	!	!	!	!	!	!	!	!
4C/	p	4c\	.	8e/L	.	8ee\L	.	.	.	.	.	.	.
.	.	.	.	8f/	.	8ff\	.	.	.	.	.	.	.
8r	.	8r	.	8g/J	.	8gg\J	.	.	.	.	.	.	.
4E/	.	4e\	.	8e/L	.	8g/L	.	.	.	.	.	.	.
.	.	.	.	8f/	.	8a/	.	.	.	.	.	.	.
8r	.	8r	.	8g/J	.	8b-X/J	.	.	.	.	.	.	.
=28	=28	=28	=28	=28	=28	=28	=28	=28	=28	=28	=28	=28	=28
!LO:TX:b:t=+	!	!	!	!	!LO:DY:a:Bi:t=f&colon;	!	!LO:DY:a:Bi:t=f.	!	!	!	!	!	!
8F\L	.	8g\L	.	8f/L	f	8a/L	f	.	.	.	.	.	.
!	!	!	!	!LO:SIC:v:s=8a/	!	!	!	!	!	!	!	!	!
8C\	.	8c\	.	8b/	.	8cc/	.	.	.	.	.	.	.
8AA\J	.	8A\J	.	8f/J	.	8a/J	.	.	.	.	.	.	.
4FF/	.	4F/	.	4A/	.	4f/	.	.	.	.	.	.	.
!	!	!	!	!	!LO:DY:a	!	!LO:DY:a:Bi:t=p.	!	!	!	!	!	!
8r	.	8r	.	8f#X/	p	8dd\	p	.	.	.	.	.	.
=29	=29	=29	=29	=29	=29	=29	=29	=29	=29	=29	=29	=29	=29
!	!	!	!	!LO:SIC:v:s=8f#/L	!	!	!	!LO:N:vis=0	!	!LO:N:vis=0	!	!LO:N:vis=0	!LO:N:vis=0
4D\	.	4d\	.	8f/L	.	8dd\L	.	1.r	.	1.r	.	1.r	1.r
.	.	.	.	8g/	.	8ee\	.	.	.	.	.	.	.
8r	.	8r	.	8a/J	.	8ff#X\J	.	.	.	.	.	.	.
!	!	!	!	!LO:SIC:v:s=8f#/L	!	!	!	!	!	!	!	!	!
4F#X\	.	4f#X\	.	8f/L	.	8a\L	.	.	.	.	.	.	.
.	.	.	.	8g/	.	8bn\	.	.	.	.	.	.	.
8r	.	8r	.	8a/J	.	8cc\J	.	.	.	.	.	.	.
!LO:LB:g=original	!	!	!	!	!	!	!	!	!	!	!	!	!
=30	=30	=30	=30	=30	=30	=30	=30	=30	=30	=30	=30	=30	=30
!	!	!LO:SIC:v:s=8f\L	!	!	!LO:DY:a:Bi:t=f&colon;	!	!LO:DY:a	!	!	!	!	!	!
8G\L	.	8g\L	.	8g/L	f	8b\L	f	.	.	.	.	.	.
8D\	.	8d\	.	8b/	.	8dd\	.	.	.	.	.	.	.
8BB\J	.	8B\J	.	8g/J	.	8b\J	.	.	.	.	.	.	.
!	!	!LO:LB:g=original	!	!	!	!	!	!	!	!	!	!	!
4GG/	.	4G/	.	4B/	.	4g/	.	.	.	.	.	.	.
8GG/	.	8G/	.	8g/	.	8g/	.	.	.	.	.	.	.
=31	=31	=31	=31	=31	=31	=31	=31	=31	=31	=31	=31	=31	=31
!	!LO:DY:a:Bi:t=f&colon;	!	!LO:DY:a:Bi:t=fortiſ	!	!LO:DY:a:Bi:t=f&colon;	!	!LO:DY:a:Bi:t=f&colon;	!	!	!	!	!	!
8C/L	f	8G/L	ff	8e/L	f	8cc\L	f	4e/	.	4cc\	.	4ee\	4ccc\
8E/	.	8G/	.	8e/	.	8cc\	.	.	.	.	.	.	.
8G/J	.	8G/J	.	8e/J	.	8cc\J	.	8r	.	8r	.	8r	8r
8c\L	.	8G/L	.	8e/L	.	8cc\L	.	4cc\	.	4ee\	.	4ee\	4ccc\
8B\	.	8G/	.	8f/	.	8dd\	.	.	.	.	.	.	.
8c\J	.	8G/J	.	8g/J	.	8ee\J	.	8r	.	8r	.	8r	8r
!	!	!	!	!LO:LB:g=original	!	!	!	!	!	!	!	!	!
=32	=32	=32	=32	=32	=32	=32	=32	=32	=32	=32	=32	=32	=32
8G\L	.	8g\L	.	4d/	.	4dd\	.	8g/L	.	8dd\L	.	4dd\	4bb\
8D\	.	8d\	.	.	.	.	.	8g/	.	8dd\	.	.	.
8BB\J	.	8B\J	.	8B/	.	8g/	.	8g/J	.	8dd\J	.	8r	8r
!	!	!	!	!	!	!	!	!LO:LB:g=original	!	!	!	!	!
8GG/L	.	8G/L	.	4B/	.	4g/	.	4g/	.	4dd\	.	4dd\	4bb\
8BB/	.	8B/	.	.	.	.	.	.	.	.	.	.	.
8D/J	.	8d/J	.	8B/	.	8g/	.	8r	.	8r	.	8r	8r
!	!	!	!	!	!	!LO:LB:g=original	!	!	!	!LO:LB:g=original	!	!	!
=33	=33	=33	=33	=33	=33	=33	=33	=33	=33	=33	=33	=33	=33
8G\L	.	8g\L	.	8b\L	.	8dd\L	.	4g/	.	4dd\	.	4ff\	4ddd\
8D\	.	8d\	.	8b\	.	8dd\	.	.	.	.	.	.	.
8BB\J	.	8B\J	.	8b\J	.	8dd\J	.	8r	.	8r	.	8r	8r
!LO:TX:t=P:problem=mixed beam	!	!LO:TX:t=P:problem=mixed beam	!	!	!	!	!	!	!	!	!	!	!
8GG/L	.	8G/L	.	8b\L	.	8dd\L	.	4dd\	.	4ff\	.	4ff\	4ddd\
8G\	.	8g\	.	8cc\	.	8ee\	.	.	.	.	.	.	.
8GG/J	.	8G/J	.	8dd\J	.	8ff\J	.	8r	.	8r	.	8r	8r
=34	=34	=34	=34	=34	=34	=34	=34	=34	=34	=34	=34	=34	=34
8C\L	.	8G/L	.	8cc\L	.	8ee\L	.	8cc\L	.	8ee\L	.	4ee\	4ccc\
8E\	.	8G/	.	8ee\	.	8gg\	.	8cc\	.	8ee\	.	.	.
8G\J	.	8G/J	.	8cc\J	.	8ee\J	.	8cc\J	.	8ee\J	.	8r	8r
4c\	.	4G/	.	4e/	.	4cc\	.	4cc\	.	4ee\	.	4ee\	4ccc\
8r	.	8r	.	8ee\	.	8gg\	.	8cc\	.	8ee\	.	8r	8r
=35	=35	=35	=35	=35	=35	=35	=35	=35	=35	=35	=35	=35	=35
4C/	.	4c/	.	8ff\L	.	8aa\L	.	4cc\	.	4ff\	.	4ff\	4aa\
.	.	.	.	8dd\	.	8ff\	.	.	.	.	.	.	.
8r	.	8r	.	8ff\J	.	8aa\J	.	8r	.	8r	.	8r	8r
4c\	.	4cc\	.	8ee\L	.	8gg\L	.	4cc\	.	4ee\	.	4ee\	4gg\
.	.	.	.	8cc\	.	8ee\	.	.	.	.	.	.	.
8r	.	8r	.	8ee\J	.	8gg\J	.	8r	.	8r	.	8r	8r
=36	=36	=36	=36	=36	=36	=36	=36	=36	=36	=36	=36	=36	=36
4G\	.	4g\	.	8dd\L	.	8ff\L	.	4g/	.	4dd\	.	4dd\	4ff\
.	.	.	.	8b\	.	8dd\	.	.	.	.	.	.	.
8r	.	8r	.	8dd\J	.	8ff\J	.	8r	.	8r	.	8r	8r
8C/L	.	8c/L	.	8g/L	.	8ee\L	.	4e/	.	4cc\	.	4cc\	4ee\
8BB/	.	8B/	.	8f/	.	8dd\	.	.	.	.	.	.	.
8C/J	.	8c/J	.	8e/J	.	8cc\J	.	8r	.	8r	.	8r	8r
!LO:LB:g=original	!	!	!	!	!	!	!	!	!	!	!	!LO:LB:g=original	!LO:LB:g=original
=37	=37	=37	=37	=37	=37	=37	=37	=37	=37	=37	=37	=37	=37
!	!	!	!	!	!	!	!	!LO:SIC:v:s=4f/	!	!	!	!	!
8D\L	.	8d\L	.	8f/L	.	8a\L	.	4g/	.	4dd\	.	8dd\L	8ff\L
8E\	.	8e\	.	8a/	.	8ff\	.	.	.	.	.	8ff\	8aa\
8F\J	.	8f\J	.	8g/J	.	8ee\J	.	8r	.	8r	.	8ee\J	8gg\J
!LO:TX:t=P:problem=mixed beam	!	!LO:TX:t=P:problem=mixed beam	!	!	!	!	!	!	!	!	!	!	!
8G\L	.	8g\L	.	8f/L	.	8dd\L	.	8dd\L	.	8ff\L	.	8dd\L	8ff\L
8GG/	.	8G/	.	8e/	.	8cc\	.	8cc\	.	8ee\	.	8cc\	8ee\
8GG/J	.	8G/J	.	8d/J	.	8b\J	.	8g\J	.	8dd\J	.	8b\J	8dd\J
!	!	!LO:LB:g=original	!	!LO:LB:g=original	!	!	!	!	!	!	!	!	!
=38	=38	=38	=38	=38	=38	=38	=38	=38	=38	=38	=38	=38	=38
8C\L	.	8G/L	.	8e/L	.	8cc\L	.	8e/L	.	8cc\L	.	8cc\L	8ee\L
8E\	.	8G/	.	8e/	.	8cc\	.	8e/	.	8cc\	.	8cc\	8ee\
8G\J	.	8G/J	.	8e/J	.	8cc\J	.	8e/J	.	8cc\J	.	8cc\J	8ee\J
4C/	.	4G/	.	4e/	.	4cc\	.	4e/	.	4cc\	.	4cc\	4ee\
=	=	=	=	=	=	=	=	=	=	=	=	=	=
!	!	!	!	!	!	!	!	!LO:LB:g=original	!	!	!	!	!
*	*	*	*	*	*	*k[b-]	*	*	*	*	*	*	*
!	!	!	!	!	!	!	!LO:DY:a:Bi:t=piano	!	!	!	!	!	!LO:TX:a:i:t=Solo
8r	.	8r	.	8r	.	8f/	p	8r	.	8r	.	8cc\	8ff\
=39!|:	=39!|:	=39!|:	=39!|:	=39!|:	=39!|:	=39!|:	=39!|:	=39!|:	=39!|:	=39!|:	=39!|:	=39!|:	=39!|:
!	!LO:DY:a:Bi:t=p&colon;	!	!LO:DY:a:Bi:t=p&colon;	!	!LO:DY:a:Bi:t=p.	!LO:TX:b:t=ſempro	!	!LO:N:vis=00	!	!LO:N:vis=00	!	!	!
4.F\	p	8c\L	p	4.f/	p	4.a/	.	0.r	.	0.r	.	4.ff\	4.aa\
.	.	8c\	.	.	.	.	.	.	.	.	.	.	.
.	.	8c\J	.	.	.	.	.	.	.	.	.	.	.
!	!	!	!	!	!	!	!	!	!	!	!	!LO:SIC:v:s=4.gg\	!LO:N:vis=4
4.E\	.	8c\L	.	4.g/	.	4.b-X/	.	.	.	.	.	4.aa\	4.bb-X\
.	.	8c\	.	.	.	.	.	.	.	.	.	.	.
.	.	8c\J	.	.	.	.	.	.	.	.	.	.	.
!	!	!	!	!	!	!LO:LB:g=original	!	!	!	!	!	!	!
=40	=40	=40	=40	=40	=40	=40	=40	=40	=40	=40	=40	=40	=40
8F\L	.	8c\L	.	8a/L	.	8cc\L	.	.	.	.	.	8aa\L	8ccc\L
8F\	.	8c\	.	8b-X/	.	8dd\	.	.	.	.	.	8bb-X\	8ddd\
8F\J	.	8c\J	.	8g/J	.	8ee\J	.	.	.	.	.	8gg\J	8eee\J
!LO:TX:t=P:problem=mixed beam	!	!	!	!	!	!	!	!	!	!	!	!	!
8F\L	.	8c\L	.	4.a/	.	4.ff\	.	.	.	.	.	4.aa\	4.fff\
!LO:SIC:v:s=8C\	!	!	!	!	!	!	!	!	!	!	!	!	!
8D\	.	8c\	.	.	.	.	.	.	.	.	.	.	.
8FF/J	.	8c\J	.	.	.	.	.	.	.	.	.	.	.
=41	=41	=41	=41	=41	=41	=41	=41	=41	=41	=41	=41	=41	=41
!	!	!	!	!LO:SIC:v:s=8b-/L	!	!	!	!	!	!	!	!	!
4BB-X/	.	8c\L	.	8b/L	.	8dd\L	.	.	.	.	.	8bb-X\L	8ddd\L
.	.	8c\	.	8a/	.	8cc\	.	.	.	.	.	8aa\	8ccc\
8r	.	8c\J	.	8g/J	.	8b-X\J	.	.	.	.	.	8gg\J	8bb-X\J
4BBn/	.	8Bn\L	.	8f/L	.	8a/L	.	.	.	.	.	8ff\L	8aa\L
.	.	8B\	.	8e/	.	8g/	.	.	.	.	.	8ee\	8gg\
8r	.	8B\J	.	8d/J	.	8f/J	.	.	.	.	.	8dd\J	8ff\J
=42	=42	=42	=42	=42	=42	=42	=42	=42	=42	=42	=42	=42	=42
8C/L	.	8c\L	.	8G/L	.	8e/L	.	.	.	.	.	8cc\L	8ee\L
8C/	.	8c\	.	8G/	.	8g/	.	.	.	.	.	8ee\	8gg\
8C/J	.	8c\J	.	8G/J	.	8e/J	.	.	.	.	.	8gg\J	8ee\J
4C/	.	8c\L	.	4G/	.	4c/	.	.	.	.	.	4ee\	4cc\
.	.	8c\	.	.	.	.	.	.	.	.	.	.	.
8r	.	8c\J	.	8A/	.	8f/	.	.	.	.	.	8cc\	8ff\
!	!	!	!	!	!	!	!	!	!	!	!	!	!LO:LB:g=original
=43	=43	=43	=43	=43	=43	=43	=43	=43	=43	=43	=43	=43	=43
!	!	!	!	!	!	!	!	!LO:N:vis=00	!	!LO:N:vis=00	!	!	!
4.F\	.	8c\L	.	4.f/	.	4.a/	.	0.r	.	0.r	.	4.ff\	4.aa\
.	.	8c\	.	.	.	.	.	.	.	.	.	.	.
.	.	8c\J	.	.	.	.	.	.	.	.	.	.	.
4.E\	.	8c\L	.	4.g/	.	4.b-X/	.	.	.	.	.	4.gg\	4.bb-X\
.	.	8c\	.	.	.	.	.	.	.	.	.	.	.
.	.	8c\J	.	.	.	.	.	.	.	.	.	.	.
!LO:LB:g=original	!	!	!	!	!	!	!	!	!	!	!	!LO:LB:g=original	!
=44	=44	=44	=44	=44	=44	=44	=44	=44	=44	=44	=44	=44	=44
8F\L	.	8c\L	.	8a/L	.	8cc\L	.	.	.	.	.	8aa\L	8ccc\L
!	!	!	!	!	!	!	!	!	!	!	!	!LO:SIC:v:s=8bb-\	!
8F\	.	8c\	.	8b-X/	.	8dd\	.	.	.	.	.	8bb\	8ddd\
8C\J	.	8c\J	.	8g/J	.	8ee\J	.	.	.	.	.	8gg\J	8eee\J
!	!	!	!	!LO:LB:g=original	!	!	!	!	!	!	!	!	!
!	!	!	!	!LO:SIC:v:s=4a/	!	!	!	!	!	!	!	!	!
8FF/L	.	8c\L	.	4a-X/	.	4ff\	.	.	.	.	.	4aa\	4fff\
8C/	.	8c\	.	.	.	.	.	.	.	.	.	.	.
8F/J	.	8c\J	.	8dd\	.	8ff\	.	.	.	.	.	8ddd\	8fff\
!	!	!LO:LB:g=original	!	!	!	!	!	!	!	!	!	!	!
=45	=45	=45	=45	=45	=45	=45	=45	=45	=45	=45	=45	=45	=45
4C/	.	8c\L	.	8g/L	.	(8ee\L	.	.	.	.	.	8gg\L	8eee\L
.	.	8c\	.	8a/	.	8ff\)	.	.	.	.	.	8aa\	8fff\
8r	.	8c\J	.	8f/J	.	8dd|\J	.	.	.	.	.	8ff\J	8ddd\J
4G\	.	8G/L	.	8e/L	.	(8cc\L	.	.	.	.	.	8ee\L	8ccc\L
.	.	8G/	.	8f/	.	8dd\)	.	.	.	.	.	8ff\	8ddd\
8r	.	8G/J	.	8d/J	.	8bn|\J	.	.	.	.	.	8dd\J	8bbn\J
=46	=46	=46	=46	=46	=46	=46	=46	=46	=46	=46	=46	=46	=46
8C/L	.	8G/L	.	8e/L	.	8cc\L	.	.	.	.	.	8ee\L	8ccc\L
8E/	.	8G/	.	8e/	.	8cc\	.	.	.	.	.	8ee\	8ccc\
8G/J	.	8G/J	.	8e/J	.	8cc\J	.	.	.	.	.	8ee\J	8ccc\J
4C/	.	4G/	.	4e/	.	4cc\	.	.	.	.	.	4ee\	4ccc\
.	.	.	.	.	.	.	.	.	.	.	.	.	.
!	!	!	!	!	!	!LO:LB:g=original	!	!	!	!	!	!	!
=:|!|:	=:|!|:	=:|!|:	=:|!|:	=:|!|:	=:|!|:	=:|!|:	=:|!|:	=:|!|:	=:|!|:	=:|!|:	=:|!|:	=:|!|:	=:|!|:
8r	.	8r	.	8cc\	.	8cc\	.	.	.	.	.	8ccc\	8ccc\
=47	=47	=47	=47	=47	=47	=47	=47	=47	=47	=47	=47	=47	=47
!	!	!	!	!	!	!	!	!LO:N:vis=00	!	!LO:N:vis=00	!	!	!
4F\	.	8f\L	.	8a/L	.	8ff\L	.	0.r	.	0.r	.	8aa\L	8fff\L
.	.	8f\	.	8g/	.	8ee\	.	.	.	.	.	8gg\	8eee\
8r	.	8f\J	.	8a/J	.	8ff\J	.	.	.	.	.	8aa\J	8fff\J
4F#X\	.	8f#X\L	.	8a/L	.	8cc\L	.	.	.	.	.	8aa\L	8ccc\L
.	.	8f#\	.	8b/	.	8dd\	.	.	.	.	.	8bb\	8ddd\
8r	.	8f#\J	.	8cc/J	.	8ee-X\J	.	.	.	.	.	8ccc\J	8eee-X\J
=48	=48	=48	=48	=48	=48	=48	=48	=48	=48	=48	=48	=48	=48
!LO:SIC:v:s=4.F#\	!	!LO:SIC:v:s=8f#\L	!	!	!	!	!	!	!	!	!	!	!
4.F\	.	8f\L	.	8b\L	.	8dd\L	.	.	.	.	.	8bb\L	8ddd\L
!	!	!LO:SIC:v:s=8f#\	!	!	!	!LO:SIC:v:s=8ee-\	!	!	!	!	!	!	!
.	.	8f\	.	8cc\	.	8ee\	.	.	.	.	.	8ccc\	8eee-X\
!	!	!LO:SIC:v:s=8f#\J	!	!	!	!	!	!	!	!	!	!	!
.	.	8f\J	.	8a\J	.	8cc\J	.	.	.	.	.	8aa\J	8ccc\J
4G\	.	8g\L	.	4g/	.	4b-/	.	.	.	.	.	4gg\	4bb\
.	.	8g\	.	.	.	.	.	.	.	.	.	.	.
8r	.	8g\J	.	8f/	.	8a/	.	.	.	.	.	8ff\	8aa\
!	!	!	!	!	!	!	!	!	!	!	!	!	!LO:LB:g=original
=49	=49	=49	=49	=49	=49	=49	=49	=49	=49	=49	=49	=49	=49
4C/	.	8c/L	.	4e/	.	4g/	.	.	.	.	.	4ee\	4gg\
.	.	8c/	.	.	.	.	.	.	.	.	.	.	.
8C/	.	8c/J	.	8d/	.	8f/	.	.	.	.	.	8dd\	8ff\
4C/	.	8c/L	.	4c/	.	4e/	.	.	.	.	.	4cc\	4ee\
.	.	8c/	.	.	.	.	.	.	.	.	.	.	.
8C/	.	8c/J	.	8d/	.	8f/	.	.	.	.	.	8dd\	8ff\
!	!	!	!	!LO:LB:g=original	!	!	!	!	!	!	!	!LO:LB:g=original	!
=50	=50	=50	=50	=50	=50	=50	=50	=50	=50	=50	=50	=50	=50
8C\L	.	8c/L	.	8e/L	.	8e/L	.	.	.	.	.	8ee\L	8ee\L
8E\	.	8c/	.	8g/	.	8g/	.	.	.	.	.	8gg\	8gg\
8G\J	.	8c/J	.	8e/J	.	8e/J	.	.	.	.	.	8ee\J	8ee\J
4c\	.	4c/	.	4c/	.	4c/	.	.	.	.	.	4cc\	4cc\
8r	.	8r	.	8A/	.	8f/	.	.	.	.	.	8cc\	8ff\
!LO:LB:g=original	!	!	!	!	!	!	!	!	!	!	!	!	!
=51	=51	=51	=51	=51	=51	=51	=51	=51	=51	=51	=51	=51	=51
!	!	!	!	!	!	!	!	!LO:N:vis=00	!	!LO:N:vis=00	!	!	!
4.F\	.	8c/L	.	4.f/	.	4.a/	.	0.r	.	0.r	.	4.ff\	4.aa\
.	.	8c/	.	.	.	.	.	.	.	.	.	.	.
.	.	8c/J	.	.	.	.	.	.	.	.	.	.	.
4.E\	.	8c/L	.	4.g/	.	4.b-X/	.	.	.	.	.	4.gg\	4.bb-X\
.	.	8c/	.	.	.	.	.	.	.	.	.	.	.
.	.	8c/J	.	.	.	.	.	.	.	.	.	.	.
!	!	!LO:LB:g=original	!	!	!	!	!	!	!	!	!	!	!
=52	=52	=52	=52	=52	=52	=52	=52	=52	=52	=52	=52	=52	=52
8F\L	.	8c/L	.	8a/L	.	8cc\L	.	.	.	.	.	8aa\L	8ccc\L
!	!	!	!	!LO:SIC:v:s=8b-/	!	!	!	!	!	!	!	!LO:SIC:v:s=8bb-\	!
8F\	.	8c/	.	8b/	.	8dd\	.	.	.	.	.	8bb\	8ddd\
8C\J	.	8c/J	.	8g/J	.	8ee\J	.	.	.	.	.	8gg\J	8eee\J
4F\	.	8c/L	.	4a/	.	4ff\	.	.	.	.	.	4gg\	4fff\
.	.	8c/	.	.	.	.	.	.	.	.	.	.	.
!	!	!	!	!LO:SIC:v:s=8b-/	!	!	!	!	!	!	!	!LO:SIC:v:s=8bb-\	!
8AA/	.	8c/J	.	8b/	.	8dd\	.	.	.	.	.	8bb\	8ddd\
=53	=53	=53	=53	=53	=53	=53	=53	=53	=53	=53	=53	=53	=53
8AA/L	.	8c/L	.	8a/L	.	8cc\L	.	.	.	.	.	8aa\L	8ccc\L
!LO:SIC:v:s=8BB-/	!	!LO:SIC:v:s=8B-/	!	!LO:SIC:v:s=8b-\	!	!	!	!	!	!	!	!LO:SIC:v:s=8bb-\	!
8BB/	.	8B/	.	8b/	.	8dd\	.	.	.	.	.	8bb\	8ddd\
!	!	!	!	!	!	!	!	!	!	!	!	!	!LO:SIC:v:s=8bb-\J
8C/J	.	8c/J	.	8g/J	.	8b-\J	.	.	.	.	.	8gg\J	8bb\J
8C/L	.	8c/L	.	8B/L	.	8g/L	.	.	.	.	.	8bb\L	8gg\L
8C/	.	8c/	.	8A/	.	8f/	.	.	.	.	.	8aa\	8ff\
8C/J	.	8c/J	.	8G/J	.	8e/J	.	.	.	.	.	8gg\J	8ee\J
!	!	!	!	!	!	!LO:LB:g=original	!	!	!	!	!	!	!
=54	=54	=54	=54	=54	=54	=54	=54	=54	=54	=54	=54	=54	=54
8F/L	.	8c/L	.	8A/L	.	8f/L	.	.	.	.	.	8aa\L	8ff\L
8C/	.	8c/	.	8A/	.	8f/	.	.	.	.	.	8aa\	8ff\
8AA/J	.	8c/J	.	8A/J	.	8f/J	.	.	.	.	.	8aa\J	8ff\J
4FF/	.	4c/	.	4A/	.	4f/	.	.	.	.	.	4aa\	4ff\
=:|!	=:|!	=:|!	=:|!	=:|!	=:|!	=:|!	=:|!	=:|!	=:|!	=:|!	=:|!	=:|!	=:|!
!	!	!	!	!	!LO:DY:a:Bi:t=pp.	!	!LO:DY:a:Bi:t=pp.	!	!	!	!	!	!
8r	.	8r	.	8G/	pp	8G/	pp	.	.	.	.	8r	8r
!	!	!	!	!	!	!	!	!	!	!LO:LB:g=original	!	!	!
=55	=55	=55	=55	=55	=55	=55	=55	=55	=55	=55	=55	=55	=55
!	!LO:DY:a:rj	!	!LO:DY:a:Bi:t=p&colon;	!	!	!	!	!LO:N:vis=00	!	!LO:N:vis=00	!	!LO:N:vis=00	!LO:N:vis=00
8C\L	p	8G/L	p	8c/L	.	8c/L	.	0.r	.	0.r	.	0.r	0.r
8E\	.	8G/	.	8c/	.	8c/	.	.	.	.	.	.	.
8G\J	.	8G/J	.	8c/J	.	8c/J	.	.	.	.	.	.	.
8C/L	.	8G/L	.	8c/L	.	8c/L	.	.	.	.	.	.	.
8BB/	.	8G/	.	8d/	.	8d/	.	.	.	.	.	.	.
8C/J	.	8G/J	.	8e/J	.	8e/J	.	.	.	.	.	.	.
!	!	!	!	!LO:LB:g=original	!	!	!	!	!	!	!	!	!
=56	=56	=56	=56	=56	=56	=56	=56	=56	=56	=56	=56	=56	=56
8GG/L	.	8G/L	.	4d/	.	4d/	.	.	.	.	.	.	.
8BB/	.	8B/	.	.	.	.	.	.	.	.	.	.	.
8D/J	.	8d/J	.	8G/	.	8G/	.	.	.	.	.	.	.
8G\L	.	8g\L	.	4G/	.	4G/	.	.	.	.	.	.	.
8D\	.	8d\	.	.	.	.	.	.	.	.	.	.	.
8C\J	.	8B\J	.	8G/	.	8G/	.	.	.	.	.	.	.
=57	=57	=57	=57	=57	=57	=57	=57	=57	=57	=57	=57	=57	=57
8GG/L	.	8G/L	.	8B/L	.	8d/L	.	.	.	.	.	.	.
8BB/	.	8G/	.	8B/	.	8d/	.	.	.	.	.	.	.
8D/J	.	8G/J	.	8B/J	.	8d/J	.	.	.	.	.	.	.
8GG/L	.	8G/L	.	8B/L	.	8d/L	.	.	.	.	.	.	.
8GG/	.	8G/	.	8c/	.	8e/	.	.	.	.	.	.	.
8GG/J	.	8G/J	.	8d/J	.	8f/J	.	.	.	.	.	.	.
!LO:LB:g=original	!	!	!	!	!	!	!	!	!	!	!	!	!
=58	=58	=58	=58	=58	=58	=58	=58	=58	=58	=58	=58	=58	=58
8C/L	.	8G/L	.	8c/L	.	8e/L	.	.	.	.	.	.	.
8C/	.	8G/	.	8e/	.	8g/	.	.	.	.	.	.	.
8C/J	.	8G/J	.	8c/J	.	8e/J	.	.	.	.	.	.	.
4C/	.	4G/	.	4G/	.	4c/	.	.	.	.	.	.	.
8r	.	8r	.	8e/	.	8g/	.	.	.	.	.	.	.
!	!	!LO:LB:g=original	!	!	!	!	!	!	!	!	!	!	!
=59	=59	=59	=59	=59	=59	=59	=59	=59	=59	=59	=59	=59	=59
!	!	!	!	!	!	!	!	!LO:N:vis=00	!	!LO:N:vis=00	!	!LO:N:vis=00	!LO:N:vis=0
4C/	.	4c/	.	8f/L	.	8a/L	.	0.r	.	0.r	.	0.r	0.r
.	.	.	.	8d/	.	8f/	.	.	.	.	.	.	.
8r	.	8r	.	8f/J	.	8a/J	.	.	.	.	.	.	.
4C/	.	4c/	.	8e/L	.	8g/L	.	.	.	.	.	.	.
.	.	.	.	8c/	.	8e/	.	.	.	.	.	.	.
8r	.	8r	.	8e/J	.	8g/J	.	.	.	.	.	.	.
=60	=60	=60	=60	=60	=60	=60	=60	=60	=60	=60	=60	=60	=60
4BB/	.	4G/	.	8d/L	.	8f/L	.	.	.	.	.	.	.
.	.	.	.	8B/	.	8d/	.	.	.	.	.	.	.
8r	.	8r	.	8d/J	.	8f/J	.	.	.	.	.	.	.
!	!	!	!	!	!	!LO:LB:g=original	!	!	!	!	!	!	!
4C/	.	4G/	.	8e/L	.	8e/L	.	.	.	.	.	.	.
.	.	.	.	8d/	.	8d/	.	.	.	.	.	.	.
8r	.	8r	.	8c/J	.	8c/J	.	.	.	.	.	.	.
=61	=61	=61	=61	=61	=61	=61	=61	=61	=61	=61	=61	=61	=61
4GG/	.	4G/	.	8d/L	.	8d/L	.	.	.	.	.	.	.
.	.	.	.	8e/	.	8e/	.	.	.	.	.	.	.
8r	.	8r	.	8c/J	.	8c/J	.	.	.	.	.	.	.
!	!	!	!	!	!	!LO:SIC:v:s=8Bn/L	!	!	!	!	!	!	!
4D/	.	4d\	.	8B/L	.	8B-/L	.	.	.	.	.	.	.
.	.	.	.	8c/	.	8d/	.	.	.	.	.	.	.
8r	.	8r	.	8A/J	.	8A/J	.	.	.	.	.	.	.
!	!	!	!	!LO:LB:g=original	!	!	!	!	!	!	!	!	!
=62	=62	=62	=62	=62	=62	=62	=62	=62	=62	=62	=62	=62	=62
8GG/L	.	8G/L	.	8G/L	.	8G/L	.	.	.	.	.	.	.
8BB/	.	8B/	.	8G/	.	8G/	.	.	.	.	.	.	.
8D/J	.	8d/J	.	8G/J	.	8G/J	.	.	.	.	.	.	.
4G\	.	4g\	.	4G/	.	4G/	.	.	.	.	.	.	.
8r	.	8r	.	8g/	.	8g/	.	.	.	.	.	.	.
!	!	!	!	!	!	!	!	!	!	!	!	!	!LO:LB:g=original
=63	=63	=63	=63	=63	=63	=63	=63	=63	=63	=63	=63	=63	=63
!	!LO:DY:a:Bi:t=f&colon;	!	!LO:DY:a:Bi:t=f&colon;	!	!LO:DY:a:Bi:t=for	!	!LO:DY:a:Bi:t=for	!	!LO:DY:a:Bi:t=f&colon;	!	!LO:DY:a:rj	!	!
8C\L	f	8G/L	f	8e/L	f	8cc\L	f	8e/L	f	8cc\L	f	4ee\	4ccc\
8E\	.	8G/	.	8e/	.	8cc\	.	8e/	.	8cc\	.	.	.
8G\J	.	8G/J	.	8e/J	.	8cc\J	.	8e/J	.	8cc\J	.	8r	8r
8c\L	.	8G/L	.	8e/L	.	8cc\L	.	8e/L	.	8cc\L	.	4ee\	4ccc\
8B\	.	8G/	.	8f/	.	8dd\	.	8g/	.	8dd\	.	.	.
8c\J	.	8G/J	.	8g/J	.	8ee\J	.	8cc/J	.	8ee\J	.	8r	8r
!	!	!	!	!	!	!	!	!	!	!	!	!LO:LB:g=original	!
=64	=64	=64	=64	=64	=64	=64	=64	=64	=64	=64	=64	=64	=64
8G\L	.	8g\L	.	4d/	.	4dd\	.	8g/L	.	8dd\L	.	4dd\	4bb\
8D\	.	8d\	.	.	.	.	.	8g/	.	8dd\	.	.	.
8BB\J	.	8B\J	.	8B/	.	8g/	.	8g/J	.	8dd\J	.	8r	8r
8GG/L	.	8G/L	.	4B/	.	4g/	.	4g/	.	4dd\	.	4dd\	4bb\
8BB/	.	8B/	.	.	.	.	.	.	.	.	.	.	.
8D/J	.	8d/J	.	8B/	.	8g/	.	8r	.	8r	.	8r	8r
=65	=65	=65	=65	=65	=65	=65	=65	=65	=65	=65	=65	=65	=65
8G\L	.	8g\L	.	8b\L	.	8dd\L	.	8g/L	.	8dd\L	.	4ff\	4ddd\
8D\	.	8d\	.	8b\	.	8dd\	.	8g/	.	8dd\	.	.	.
8BB\J	.	8B\J	.	8b\J	.	8dd\J	.	8g/J	.	8dd\J	.	8r	8r
!LO:LB:g=original	!	!	!	!	!	!	!	!	!	!	!	!	!
!LO:TX:t=P:problem=mixed beam	!	!LO:TX:t=P:problem=mixed beam	!	!	!	!	!	!	!	!	!	!	!
8GG/L	.	8G/L	.	8b\L	.	8dd\L	.	8g/L	.	8dd\L	.	4ff\	4ddd\
8G\	.	8g\	.	8cc\	.	8ee\	.	8cc/	.	8ee\	.	.	.
8GG/J	.	8G/J	.	8dd\J	.	8ff\J	.	8dd/J	.	8ff\J	.	8r	8r
!	!	!	!	!	!	!	!	!LO:LB:g=original	!	!	!	!	!
=66	=66	=66	=66	=66	=66	=66	=66	=66	=66	=66	=66	=66	=66
8C\L	.	8G/L	.	8cc\L	.	8ee\L	.	8cc\L	.	8ee\L	.	4ee\	4ccc\
8E\	.	8G/	.	8ee\	.	8gg\	.	8cc\	.	8ee\	.	.	.
8G\J	.	8G/J	.	8cc\J	.	8ee\J	.	8cc\J	.	8ee\J	.	8r	8r
4c\	.	4G/	.	4e/	.	4cc\	.	4cc\	.	4ee\	.	4ee\	4ccc\
8r	.	8r	.	8ee\	.	8gg\	.	8cc\	.	8ee\	.	8r	8r
!	!	!LO:LB:g=original	!	!	!	!LO:LB:g=original	!	!	!	!	!	!	!
=67	=67	=67	=67	=67	=67	=67	=67	=67	=67	=67	=67	=67	=67
4C/	.	4c/	.	8ff\L	.	8aa\L	.	4cc\	.	4ff\	.	4ff\	4aa\
.	.	.	.	8dd\	.	8ff\	.	.	.	.	.	.	.
8r	.	8r	.	8ff\J	.	8aa\J	.	8r	.	8r	.	8r	8r
4c\	.	4cc\	.	8ee\L	.	8gg\L	.	4cc\	.	4ee\	.	4ee\	4gg\
.	.	.	.	8cc\	.	8ee\	.	.	.	.	.	.	.
8r	.	8r	.	8ee\J	.	8gg\J	.	8r	.	8r	.	8r	8r
!	!	!	!	!LO:LB:g=original	!	!	!	!	!	!	!	!	!
=68	=68	=68	=68	=68	=68	=68	=68	=68	=68	=68	=68	=68	=68
4G\	.	4g\	.	8dd\L	.	8ff\L	.	4g/	.	4dd\	.	4dd\	4ff\
.	.	.	.	8b\	.	8dd\	.	.	.	.	.	.	.
8r	.	8r	.	8dd\J	.	8ff\J	.	8r	.	8r	.	8r	8r
8C/L	.	8c/L	.	8g/L	.	8ee\L	.	4e/	.	4cc\	.	4cc\	4ee\
!LO:SIC:v:s=8BB-/	!	!	!	!	!	!	!	!	!	!	!	!	!
8AA/	.	8B/	.	8f/	.	8dd\	.	.	.	.	.	.	.
8C/J	.	8c/J	.	8e/J	.	8cc\J	.	8r	.	8r	.	8r	8r
!	!	!	!	!	!	!	!	!	!	!LO:LB:g=original	!	!	!
=69	=69	=69	=69	=69	=69	=69	=69	=69	=69	=69	=69	=69	=69
8F\L	.	8f\L	.	8f/L	.	8a\L	.	4g/	.	4dd\	.	8dd\L	8ff\L
8F\	.	8f\	.	8a/	.	8ff\	.	.	.	.	.	8ff\	8aa\
8F\J	.	8f\J	.	8g/J	.	8ee\J	.	8r	.	8r	.	8ee\J	8gg\J
!LO:TX:t=P:problem=mixed beam	!	!LO:TX:t=P:problem=mixed beam	!	!	!	!	!	!	!	!	!	!	!
8G\L	.	8g\L	.	8f/L	.	8dd\L	.	8dd/L	.	8ff\L	.	8dd\L	8ff\L
8GG/	.	8G/	.	8e/	.	8cc\	.	8cc/	.	8ee\	.	8cc\	8ee\
!	!	!	!	!	!	!LO:SIC:v:s=8bn\J	!	!	!	!	!	!	!
8GG/J	.	8G/J	.	8d/J	.	8b-\J	.	8g/J	.	8dd\J	.	8b\J	8dd\J
=70	=70	=70	=70	=70	=70	=70	=70	=70	=70	=70	=70	=70	=70
8C\L	.	8G/L	.	8e/L	.	8cc\L	.	8e/L	.	8cc\L	.	8cc\L	8ee\L
8E\	.	8G/	.	8e/	.	8cc\	.	8e/	.	8cc\	.	8cc\	8ee\
8G\J	.	8G/J	.	8e/J	.	8cc\J	.	8e/J	.	8cc\J	.	8cc\J	8ee\J
4C/	.	4G/	.	4e/	.	4cc\	.	4e/	.	4cc\	.	4cc\	4ee\
=:|!;;	=:|!	=:|!;;	=:|!	=:|!;;	=:|!	=:|!;;	=:|!	=:|!;;	=:|!	=:|!	=:|!	=:|!;;	=:|!;;
*-	*-	*-	*-	*-	*-	*-	*-	*-	*-	*-	*-	*-	*-
!!!system-decoration: [(g1)][(g2)][(g3)]
!!!RDF**kern: | = vertical stroke
!!!ENC: Katarzyna Serwa
!!!END: 2022-02-21
!!!ENC: Tomasz Grochalski
!!!END: 2020-07-22
!!!YEC: Copyright 2022 Narodowy Instytut Fryderyka Chopina (https://polishscores.org)
!!!YEM: License CC-BY-4.0 (https://creativecommons.org/licenses/by/4.0)
